!! 00047] TT[KA
!! NN
!!!OTL: Song lang dang hongjun
!!!ARE: Asia, China,ÿJiangxi, Suqu
!! Ethnic Group: Han
!! IV, 220
!!!SCT: C0404
!!!YEM: Copyright 1995, estate of Helmut Schaffrath.
**kern
*ICvox
*Ivox
*M2/4
*k[b-e-]
*B-:
{8ccc
4ccc
8ddd
=1
8ccc
8ddd
8gg
8bb-
=2
4.ccc
8ddd}
=3
{8ff
4ff
8gg
=4
4bb-
8ccc
8ddd
=5
4bb-
4r}
=6
{8bb-
8ccc
4ddd
=7
2ccc
=8
8bb-
8ccc
8bb-
8gg
=9
4ff
4r}
=10
{8gg
4gg
8bb-
=11
8gg
8ff
4dd
=12
4ff
4r}
=13
{8gg
8ccc
8bb-
8gg
=14
4ff
8gg
8dd
=15
2ff}
==
!!!AGN: Xiaodiao. Geming lishi minge
!! Jiang vermutet, die Melodie kommt aus Fujian, da die Suedost -
!!    Region relativ nahe ist.
!!    Pinyin-Text der ersten Strophe vorhanden!
!!!ONB: ESAC (Essen Associative Code) Database: CHINA
!!!AMT: simple duple
!!!AIN: vox
!!!EED: Helmut Schaffrath
!!!EEV: 1.0
*-
